!!!OTL: LOBT DEN  HERRN
!!!ARE: Europa, Mitteleuropa, Deutschland
!!!SCT: F0364
!!!YEM: Copyright 1995, estate of Helmut Schaffrath.
**kern
*ICvox
*Ivox
*M4/4
*k[b-e-a-]
*E-:
=1
{2E-
2G
=2
1B-}
=3
{4B-
2e-
8f
8d
=4
2e-
4r}
{4B-
=5
4.c
8d
4e-
4c
=6
4c
4B-
2g
=7
4g}
{8f
8e-
8d
8c
8B-
8A-
=8
4.G
8c
4B-
4A-
=9
2B-
2r}
=10
{2B-
4.d
8e-
=11
4f
4c
4c
4d
=12
4e-
4B-
2e-
=13
4e-}
{4d
4a-
4g
=14
4.c
8f
4e-
4d
=15
2e-
2r}
==
!!!AGN: Jugend - Lied, Tageszeiten, Morgen, religioes, Lob - Lied
!!!ONB: ESAC (Essen Associative Code) Database: FINK
!!!AMT: simple quadruple
!!!AIN: vox
!!!EED: Helmut Schaffrath
!!!EEV: 1.0
*-
